%
O32123 (NC Viewer Demo File)
(Using high feed G1 F500. instead of G0.)
(T1 D=0.5 CR=0. - ZMIN=0. - flat end mill)
(T3 D=0.125 CR=0.0625 - ZMIN=0.5 - ball end mill)
N10 G90 G94 G17 G69
N15 G20
N20 G53 G0 Z0.

(Adaptive1)
N30 T1 M6
N35 S7640 M3
N40 G54
N45 M8
N60 G0 X4.4764 Y2.9321
N65 G43 Z1.4 H1
N70 T3
N75 G0 Z0.5063
N80 G1 Z0.4563 F92.
N85 X4.4762 Y2.9319 Z0.4507
N90 Y1.8086 Z0.7452
N95 Y1.7749 Z0.7463
N100 Y1.7134 Z0.7496
N105 Y1.6965 Z0.75
N110 G2 Y1.6939 Z0.7506 J0.0001 K0.0062
N115 G3 Y1.6911 Z0.7513 J-0.0028 K-0.0056
N120 G17 G2 X2.9628 I-0.01 J0.
N125 G1 Y1.7426
N130 G19 G2 Y1.7454 Z0.7506 J0. K-0.0063
N135 G1 Y1.7455
N140 G3 Y1.7482 Z0.7499 J0.0028 K0.0056
N145 G1 Y1.8043 Z0.7493
N150 Y2.1604 Z0.7491
N155 Y2.2518 Z0.7499
N160 G3 Y2.2642 Z0.7624 J-0.0001 K0.0125 F20.
N165 G0 Z1.4

(Trace1)
N170 G1 X0.1937 Y0.3866 F500.
N175 G0 Z1.4
N180 Z0.95
N185 G1 Z0.5 F20.
N190 X0.1437 F40.
N195 X3.5082 Y0.5346
N200 Y0.3866
N205 X3.4598
N210 Y0.4437
N215 Z0.95 F20.
N220 G0 Z1.4

N225 M5
N230 G53 G0 Z0.
N235 G69
N240 X2.
N245 G53 Y0.
N250 M30

%
